X:178
T:Pop Along Polka
R:polka
C:Trad
M:2/4
L:1/16
K:C
EF|:G2e2 F2d2|E2c2 cGEC|F2D2 DEFA|G2E2 E2 EF|
  |G2e2 F2d2|E2c2 cGEC|BCDE FGAB|1c4 c2 EF:|2 c4 c2 c2|
  |:ef g2c2c2|fg a2d2d2|c2 BABcdB|AGcBcd e2|
  |ef g2c2c2|fg a2d2d2|c2 BA Bcdf|1 ed c2c2:|2 ed c2c2 EF|
